images/Info-circle.svg

<svg width="24" height="25" viewBox="0 0 24 25" fill="none" xmlns="http://www.w3.org/2000/svg">
<path d="M11.9635 7.80908H11.9272C11.4908 7.80908 11.0908 8.17272 11.0908 8.64545C11.0908 9.11817 11.4545 9.48181 11.9272 9.48181H11.9635C12.3999 9.48181 12.7999 9.11817 12.7999 8.64545C12.7999 8.17272 12.4363 7.80908 11.9635 7.80908Z" fill="#111928"/>
<path d="M11.9633 10.6816C11.527 10.6816 11.127 11.0453 11.127 11.518V17.118C11.127 17.5544 11.4906 17.9544 11.9633 17.9544C12.3997 17.9544 12.7997 17.5907 12.7997 17.118V11.4816C12.7997 11.0453 12.436 10.6816 11.9633 10.6816Z" fill="#111928"/>
<path d="M11.9635 1.51807C5.89077 1.51807 0.945312 6.42716 0.945312 12.4999C0.945312 18.5726 5.89077 23.5181 11.9635 23.5181C18.0362 23.5181 22.9453 18.5726 22.9453 12.4999C22.9453 6.42716 18.0362 1.51807 11.9635 1.51807ZM11.9635 21.8817C6.79986 21.8817 2.58168 17.6635 2.58168 12.4999C2.58168 7.33625 6.79986 3.11807 11.9635 3.11807C17.1271 3.11807 21.3089 7.33625 21.3089 12.4999C21.3089 17.6635 17.1271 21.8817 11.9635 21.8817Z" fill="#111928"/>
</svg>

<svg xmlns="http://www.w3.org/2000/svg" width="24" height="25" fill="none"><path fill="#111928" d="M11.964 7.81h-.037a.846.846 0 0 0-.836.835c0 .473.364.837.836.837h.037a.846.846 0 0 0 .836-.837.823.823 0 0 0-.837-.836M11.963 10.682a.846.846 0 0 0-.836.836v5.6c0 .436.364.836.836.836a.846.846 0 0 0 .837-.836v-5.636c0-.437-.364-.8-.837-.8"/><path fill="#111928" d="M11.964 1.518C5.89 1.518.944 6.428.944 12.5c0 6.073 4.946 11.018 11.019 11.018 6.072 0 10.981-4.945 10.981-11.018S18.036 1.518 11.964 1.518m0 20.364c-5.164 0-9.382-4.219-9.382-9.382 0-5.164 4.218-9.382 9.381-9.382S21.31 7.336 21.31 12.5s-4.182 9.382-9.346 9.382"/></svg>
